X:50
T:Steyrer Tanz in G, nr. 6
C:traditionell
R:Steirer
A:Hallstatt, Salzkammergut
B:Corpus Musicae Popularis Austriacae (COMPA), 5.Band: J.M.Schmalnauer " Tanz Musik", Verlag Boehlau, Wien 1996
S:manuscript des Johann Michael Schmalnauer um 1820
N:im der quelle in G
Z:abc transcription Simon Wascher
F:http://simonwascher.info/TradArchiv/
M:3/4
L:1/8
K:G
V:1
%violino 1mo
P:g:Ap:
.B(dg |\
eG)(ce)(gG | dG)(Bd)(gG | cD)(AD)(BD) | G2 BdgG |\
eG(ce)(gG | dG)(Bd)(gG | cD)(AD)(BD) | "in D" G3 :|
V:2
%violino 2do
.G,.B,(D |\
CE)(GECE) | B,DGDB,D | A,DCDGD | B,DGB dD |\
CE(GECE) | B,DGDB,D | A,DCDGD | B,3 :|
